static/images/platforms/dark/svelte.svg

<svg xmlns="http://www.w3.org/2000/svg" viewBox="0 0 128 128"><path d="M110.847 18.026a35.75 35.75 0 0 1 6.109 27.046 33.671 33.671 0 0 1-5.017 12.543 35.364 35.364 0 0 1 3.482 22.69 33.555 33.555 0 0 1-15.162 22.479l-29.252 18.644c-16.654 10.612-39.69 5.666-51.358-11.029a35.767 35.767 0 0 1-6.109-27.047 33.647 33.647 0 0 1 5.02-12.543 35.348 35.348 0 0 1-3.485-22.691 33.56 33.56 0 0 1 15.161-22.479L59.489 6.995C76.145-3.618 99.182 1.33 110.846 18.026Zm-48.271 91.331 29.25-18.641a20.194 20.194 0 0 0 9.12-13.52 21.508 21.508 0 0 0-3.676-16.265 23.236 23.236 0 0 0-24.94-9.244 21.287 21.287 0 0 0-5.94 2.611l-11.16 7.114a6.551 6.551 0 0 1-1.797.789 7.003 7.003 0 0 1-7.512-2.789 6.489 6.489 0 0 1-1.106-4.902 6.079 6.079 0 0 1 2.747-4.071l29.253-18.644a6.498 6.498 0 0 1 1.797-.79 7.003 7.003 0 0 1 7.51 2.787 6.588 6.588 0 0 1 1.18 4.35l-.102 1.085 1.088.33a37.732 37.732 0 0 1 11.444 5.72l1.498 1.099.551-1.68c.295-.894.528-1.807.699-2.732a21.504 21.504 0 0 0-3.675-16.265 23.239 23.239 0 0 0-24.94-9.245 21.316 21.316 0 0 0-5.944 2.613L38.67 37.71a20.174 20.174 0 0 0-9.118 13.516 21.497 21.497 0 0 0 3.675 16.265 23.235 23.235 0 0 0 24.939 9.244 21.325 21.325 0 0 0 5.941-2.607l11.162-7.116a6.457 6.457 0 0 1 1.795-.79 7 7 0 0 1 7.512 2.789 6.493 6.493 0 0 1 1.107 4.903 6.089 6.089 0 0 1-2.748 4.072L53.681 96.627a6.442 6.442 0 0 1-1.797.791 6.995 6.995 0 0 1-7.508-2.788 6.56 6.56 0 0 1-1.181-4.35l.1-1.085-1.086-.329a37.687 37.687 0 0 1-11.443-5.718l-1.499-1.1-.551 1.68a20.594 20.594 0 0 0-.699 2.731 21.5 21.5 0 0 0 3.675 16.266 23.235 23.235 0 0 0 24.94 9.243 21.266 21.266 0 0 0 5.944-2.611Z" style="fill:#e4e4e7"/></svg>

<?xml version="1.0" encoding="utf-8"?>
<svg viewBox="0 0 128 128" xmlns="http://www.w3.org/2000/svg">
  <path d="M 110.847 18.026 C 116.439 25.852 118.641 35.602 116.956 45.072 C 116.148 49.549 114.442 53.815 111.939 57.615 C 115.59 64.581 116.816 72.564 115.421 80.305 C 113.754 89.597 108.251 97.757 100.259 102.784 L 71.007 121.428 C 54.353 132.04 31.317 127.094 19.649 110.399 C 14.059 102.571 11.856 92.822 13.54 83.352 C 14.348 78.875 16.056 74.607 18.56 70.809 C 14.906 63.844 13.68 55.859 15.075 48.118 C 16.741 38.826 22.247 30.666 30.236 25.639 L 59.489 6.995 C 76.145 -3.618 99.182 1.33 110.846 18.026 Z M 62.576 109.357 L 91.826 90.716 C 96.632 87.692 99.941 82.785 100.946 77.196 C 101.958 71.502 100.633 65.639 97.27 60.931 C 91.717 52.926 81.76 49.235 72.33 51.687 C 70.228 52.249 68.225 53.129 66.39 54.298 L 55.23 61.412 C 54.673 61.763 54.068 62.031 53.433 62.201 C 50.591 62.937 47.593 61.824 45.921 59.412 C 44.909 57.993 44.51 56.225 44.815 54.51 C 45.117 52.827 46.115 51.349 47.562 50.439 L 76.815 31.795 C 77.371 31.442 77.976 31.176 78.612 31.005 C 81.451 30.269 84.449 31.381 86.122 33.792 C 87.014 35.058 87.433 36.599 87.302 38.142 L 87.2 39.227 L 88.288 39.557 C 92.401 40.798 96.27 42.733 99.732 45.277 L 101.23 46.376 L 101.781 44.696 C 102.076 43.802 102.309 42.889 102.48 41.964 C 103.492 36.268 102.168 30.405 98.805 25.699 C 93.252 17.694 83.294 14.003 73.865 16.454 C 71.762 17.017 69.757 17.897 67.921 19.067 L 38.67 37.71 C 33.864 40.732 30.555 45.638 29.552 51.226 C 28.539 56.921 29.863 62.784 33.227 67.491 C 38.78 75.496 48.737 79.187 58.166 76.735 C 60.268 76.174 62.271 75.295 64.107 74.128 L 75.269 67.012 C 75.823 66.658 76.43 66.393 77.064 66.222 C 79.905 65.485 82.903 66.598 84.576 69.011 C 85.588 70.43 85.987 72.196 85.683 73.914 C 85.381 75.596 84.382 77.074 82.935 77.986 L 53.681 96.627 C 53.125 96.982 52.52 97.247 51.884 97.418 C 49.045 98.155 46.046 97.042 44.376 94.63 C 43.481 93.366 43.063 91.825 43.195 90.28 L 43.295 89.195 L 42.209 88.866 C 38.097 87.626 34.226 85.692 30.766 83.148 L 29.267 82.048 L 28.716 83.728 C 28.421 84.622 28.187 85.534 28.017 86.459 C 27.004 92.154 28.328 98.017 31.692 102.725 C 37.245 110.729 47.202 114.421 56.632 111.968 C 58.735 111.407 60.739 110.527 62.576 109.357 Z" style="fill: rgb(228, 228, 231);"/>
</svg>
